assets/move.svg

<?xml version="1.0" encoding="utf-8"?>
<svg width="512px" height="256px" viewBox="0 0 512 256" version="1.1" xmlns:xlink="http://www.w3.org/1999/xlink" xmlns="http://www.w3.org/2000/svg">
  <defs>
    <path d="M60.3808 158.306C59.915 158.306 59.4493 158.217 58.9986 158.055C58.037 157.687 57.2708 156.966 56.8502 156.038L34.4046 105.184L6.47527 130.905C5.36351 131.936 3.72591 132.201 2.31367 131.612C0.916453 131.023 0 129.654 0 128.152L0 3.76836C0 2.26657 0.90143 0.91201 2.31367 0.308344C3.71089 -0.280594 5.34848 -0.0155682 6.47527 1.01507L98.7817 85.4394C99.8934 86.4553 100.284 88.0307 99.7883 89.4295C99.2925 90.8429 98.0004 91.8294 96.483 91.9619L57.3159 95.2599L80.7981 145.437C81.2188 146.336 81.2639 147.381 80.9033 148.323C80.5427 149.266 79.8366 150.016 78.9051 150.429L61.9733 157.967C61.4625 158.188 60.9366 158.306 60.3808 158.306L60.3808 158.306Z" transform="translate(206.00002 49.094193)" id="path_1" />
    <rect width="512" height="256" id="artboard_1" />
    <clipPath id="clip_1">
      <use xlink:href="#artboard_1" clip-rule="evenodd" />
    </clipPath>
    <clipPath id="clip_2">
      <use xlink:href="#path_1" />
    </clipPath>
  </defs>
  <g id="move" clip-path="url(#clip_1)">
    <use xlink:href="#artboard_1" stroke="none" fill="#FFFFFF" fill-opacity="0" />
    <g id="Shape">
      <use stroke="none" fill="#FFFFFF" fill-opacity="0" xlink:href="#path_1" fill-rule="evenodd" />
      <g clip-path="url(#clip_2)">
        <use xlink:href="#path_1" fill="none" stroke="#000000" stroke-width="14" stroke-linecap="square" />
      </g>
    </g>
  </g>
</svg>

<svg width="512" height="256" xmlns:xlink="http://www.w3.org/1999/xlink" xmlns="http://www.w3.org/2000/svg"><defs><clipPath id="prefix__c"><use xlink:href="#prefix__a" clip-rule="evenodd"/></clipPath><clipPath id="prefix__d"><use xlink:href="#prefix__b"/></clipPath><path d="M60.38 158.306c-.465 0-.93-.089-1.381-.251a3.864 3.864 0 01-2.149-2.017l-22.445-50.854-27.93 25.721c-1.111 1.031-2.75 1.296-4.161.707A3.773 3.773 0 010 128.152V3.768C0 2.267.901.912 2.314.308a3.925 3.925 0 014.161.707L98.782 85.44a3.726 3.726 0 011.006 3.99c-.495 1.414-1.788 2.4-3.305 2.533L57.316 95.26l23.482 50.177a3.7 3.7 0 01.105 2.886 3.753 3.753 0 01-1.998 2.106l-16.932 7.538a3.96 3.96 0 01-1.592.339z" transform="translate(206 49.094)" id="prefix__b"/><path id="prefix__a" d="M0 0h512v256H0z"/></defs><g clip-path="url(#prefix__c)"><use xlink:href="#prefix__a" fill="#FFF" fill-opacity="0"/><use fill="#FFF" fill-opacity="0" xlink:href="#prefix__b" fill-rule="evenodd"/><g clip-path="url(#prefix__d)"><use xlink:href="#prefix__b" fill="none" stroke="#000" stroke-width="14" stroke-linecap="square"/></g></g></svg>
